X:1
T:The Humours Of Ennistymon
R:jig
M:6/8
L:1/8
K:G
|:BcB GBd|cBc ABc|BcB GBd|cAG FGA|
|BcB GBd|cBc ABc|d^cd ecA|1 AGF G2A:|2 AGF G2e|]
|:f2f fed|cAG FGA|dgg gfg|afd d2e|
fgf fed|cAG FGA|BAB cAF|1 AGF G2e:|2 AGF G2f|]
|gdB gdB|ecA ecA|BcB GBd|cAG FGA|
|gdB gdB|ecA ecA|BcB GBd|cAF G2f|
|gdB gdB|ecA ecA|BcB GBd|cAG FGA|
|BcB GBd|cBc ABc|d^cd ecA|AGF G2A|